X:2057
T:Polonäs efter Ragnar Schelén
O:Västmanland
S:efter Ragnar Schelén
R:Polska
B:[[http://www.smus.se/earkiv/fmk/browselarge.php?lang=sw&katalogid=MMD+36&bildnr=00006|SMUS katalog MMD36 nr 6]] (låt nr 15)
Z: Nils L
L:1/8
K:G
d2 {/e}dcBc | (GB)(dg)(Bd) | {/d}(cB)(Ae)(dc) | (BG)(Bd)(gb) | 
d2 {/e}dcBc | (GB)(dg)(Bd) | {/d}(cB)(Ae)(dF) | G2 g2 z2 ::
(da).g.f.d.c | (Bb).g.d.B.G | (Ae).e.c.A.G | (GB).d.g b2 |
(da).g.f.d.c | dbgd'bg | dc'acBA | G2 g2 z2 :|
(:musicend:)

(:music:)
